assets/Vibration mode/Flat/vibration_mode_flat.svg

<svg width="32" height="32" viewBox="0 0 32 32" fill="none" xmlns="http://www.w3.org/2000/svg">
<path d="M2 6C2 3.79086 3.79086 2 6 2H26C28.2091 2 30 3.79086 30 6V26C30 28.2091 28.2091 30 26 30H6C3.79086 30 2 28.2091 2 26V6Z" fill="#FF9F2E"/>
<path d="M10 9C10 7.89543 10.8954 7 12 7H20C21.1046 7 22 7.89543 22 9V23C22 24.1046 21.1046 25 20 25H12C10.8954 25 10 24.1046 10 23V9ZM20.2188 9.59375H11.8438C11.7057 9.59375 11.5938 9.70568 11.5938 9.84375V22.1875C11.5938 22.3256 11.7057 22.4375 11.8438 22.4375H20.2188C20.3568 22.4375 20.4688 22.3256 20.4688 22.1875V9.84375C20.4688 9.70568 20.3568 9.59375 20.2188 9.59375Z" fill="white"/>
<path d="M6.65919 10.0887C6.87867 10.2563 6.92074 10.57 6.75316 10.7895C5.68258 12.1916 5.04694 13.9426 5.04694 15.8435C5.04694 17.8801 5.77665 19.745 6.98943 21.1928C7.16674 21.4045 7.13888 21.7199 6.92719 21.8972C6.7155 22.0745 6.40014 22.0467 6.22283 21.835C4.8649 20.2138 4.04694 18.1235 4.04694 15.8435C4.04694 13.7158 4.75933 11.753 5.95836 10.1826C6.12594 9.96317 6.43972 9.9211 6.65919 10.0887Z" fill="white"/>
<path d="M8.7004 13.1065C8.91988 13.2741 8.96195 13.5878 8.79437 13.8073C8.34487 14.396 8.07812 15.1307 8.07812 15.9291C8.07812 16.7845 8.38431 17.567 8.89361 18.175C9.07092 18.3867 9.04306 18.7021 8.83137 18.8794C8.61968 19.0567 8.30432 19.0288 8.12701 18.8172C7.47256 18.0358 7.07812 17.0279 7.07812 15.9291C7.07812 14.9038 7.42162 13.9574 7.99957 13.2004C8.16715 12.981 8.48092 12.9389 8.7004 13.1065Z" fill="white"/>
<path d="M23.2628 13.8073C23.0952 13.5878 23.1373 13.2741 23.3568 13.1065C23.5763 12.9389 23.89 12.981 24.0576 13.2004C24.6356 13.9574 24.9791 14.9038 24.9791 15.9291C24.9791 17.0279 24.5846 18.0358 23.9302 18.8172C23.7529 19.0288 23.4375 19.0567 23.2258 18.8794C23.0141 18.7021 22.9863 18.3867 23.1636 18.175C23.6729 17.567 23.9791 16.7845 23.9791 15.9291C23.9791 15.1307 23.7123 14.396 23.2628 13.8073Z" fill="white"/>
<path d="M25.3981 10.0887C25.1786 10.2563 25.1365 10.57 25.3041 10.7895C26.3747 12.1916 27.0103 13.9426 27.0103 15.8435C27.0103 17.8801 26.2806 19.745 25.0678 21.1928C24.8905 21.4045 24.9184 21.7199 25.1301 21.8972C25.3418 22.0745 25.6571 22.0467 25.8344 21.835C27.1924 20.2138 28.0103 18.1235 28.0103 15.8435C28.0103 13.7158 27.2979 11.753 26.0989 10.1826C25.9313 9.96317 25.6175 9.9211 25.3981 10.0887Z" fill="white"/>
</svg>

<svg xmlns="http://www.w3.org/2000/svg" width="32" height="32" fill="none"><path fill="#FF9F2E" d="M2 6a4 4 0 0 1 4-4h20a4 4 0 0 1 4 4v20a4 4 0 0 1-4 4H6a4 4 0 0 1-4-4V6Z"/><path fill="#fff" d="M10 9a2 2 0 0 1 2-2h8a2 2 0 0 1 2 2v14a2 2 0 0 1-2 2h-8a2 2 0 0 1-2-2V9Zm10.219.594h-8.375a.25.25 0 0 0-.25.25v12.344c0 .138.112.25.25.25h8.375a.25.25 0 0 0 .25-.25V9.844a.25.25 0 0 0-.25-.25ZM6.66 10.089a.5.5 0 0 1 .093.7 8.297 8.297 0 0 0-1.706 5.055 8.3 8.3 0 0 0 1.942 5.349.5.5 0 0 1-.766.642 9.3 9.3 0 0 1-2.176-5.992c0-2.127.712-4.09 1.911-5.66a.5.5 0 0 1 .701-.094ZM8.7 13.107a.5.5 0 0 1 .094.7 3.482 3.482 0 0 0-.716 2.122c0 .856.306 1.638.816 2.246a.5.5 0 0 1-.767.642 4.484 4.484 0 0 1-1.049-2.888c0-1.025.344-1.972.922-2.729a.5.5 0 0 1 .7-.093ZM23.263 13.807a.5.5 0 1 1 .795-.607c.578.757.921 1.704.921 2.73a4.484 4.484 0 0 1-1.049 2.887.5.5 0 0 1-.766-.642c.509-.608.815-1.39.815-2.246 0-.798-.267-1.533-.716-2.122ZM25.398 10.089a.5.5 0 0 0-.094.7 8.297 8.297 0 0 1 1.706 5.055 8.3 8.3 0 0 1-1.942 5.349.5.5 0 0 0 .766.642 9.3 9.3 0 0 0 2.176-5.992c0-2.127-.712-4.09-1.911-5.66a.5.5 0 0 0-.7-.094Z"/></svg>
